public/logos/YC.svg

<?xml version="1.0" encoding="UTF-8"?>
<svg xmlns="http://www.w3.org/2000/svg" xmlns:xlink="http://www.w3.org/1999/xlink" width="176pt" height="44.94pt" viewBox="0 0 176 44.94" version="1.1">
<defs>
<clipPath id="clip1">
  <path d="M 1 30 L 175 30 L 175 44.941406 L 1 44.941406 Z M 1 30 "/>
</clipPath>
<clipPath id="clip2">
  <path d="M 9 41 L 167 41 L 167 44.941406 L 9 44.941406 Z M 9 41 "/>
</clipPath>
</defs>
<g id="surface1">
<path style=" stroke:none;fill-rule:nonzero;fill:rgb(90.612793%,16.220093%,21.420288%);fill-opacity:1;" d="M 27.101562 17.976562 L 19.480469 17.976562 C 19.480469 17.976562 16.769531 17.488281 18.125 14.550781 C 19.480469 11.613281 22.425781 5.1875 22.425781 5.1875 C 22.425781 5.1875 22.53125 3 25.746094 3 C 28.964844 3 33.539062 3 33.539062 3 Z M 47.09375 0.00390625 C 47.09375 0.00390625 30.941406 0.00390625 22.980469 0.00390625 C 15.019531 0.00390625 14.34375 3.183594 14.34375 3.183594 C 14.34375 3.183594 9.316406 12.699219 7.621094 16.425781 C 5.929688 20.152344 12.535156 21.429688 12.535156 21.429688 L 7.792969 26.964844 L 0 26.964844 L 0 29.960938 L 15.902344 29.960938 L 16.8125 26.964844 L 15.617188 26.964844 L 18.972656 20.972656 L 24.957031 20.972656 L 22.542969 26.964844 L 20.835938 26.964844 L 19.761719 29.960938 L 35.949219 29.960938 L 35.949219 26.964844 L 34.007812 26.964844 L 47.09375 0.00390625 "/>
<path style=" stroke:none;fill-rule:nonzero;fill:rgb(90.612793%,16.220093%,21.420288%);fill-opacity:1;" d="M 98.589844 0.00390625 L 87.070312 0.00390625 L 70.46875 14.683594 L 66.824219 0.00390625 L 56.238281 0.00390625 L 43.449219 26.964844 L 38.945312 26.964844 L 38.945312 29.960938 L 56.921875 29.960938 L 56.921875 26.964844 L 54.332031 26.964844 L 63.609375 6.734375 L 68.519531 22.128906 L 81.394531 10.597656 L 73.09375 26.964844 L 71.273438 26.964844 L 71.257812 29.960938 L 86.878906 29.960938 L 86.878906 26.964844 L 85.839844 26.964844 L 98.589844 0.00390625 "/>
<path style=" stroke:none;fill-rule:nonzero;fill:rgb(90.612793%,16.220093%,21.420288%);fill-opacity:1;" d="M 119.367188 17.976562 L 110.871094 17.976562 C 111.121094 17.976562 121.289062 7.898438 121.289062 7.898438 Z M 129.460938 26.964844 L 132.296875 0.00390625 L 122.726562 0.00390625 L 94.992188 26.582031 L 89.875 26.425781 L 89.875 29.960938 L 103.671875 29.960938 L 103.753906 27.007812 L 101.171875 26.472656 L 105.617188 20.972656 L 118.40625 20.972656 L 117.304688 26.964844 L 113.839844 26.964844 L 113.839844 29.960938 L 131.957031 29.960938 L 131.875 26.964844 L 129.460938 26.964844 "/>
<path style=" stroke:none;fill-rule:nonzero;fill:rgb(90.612793%,16.220093%,21.420288%);fill-opacity:1;" d="M 173.164062 26.964844 L 176 0.00390625 L 166.429688 0.00390625 L 139.3125 26.582031 L 134.8125 26.425781 L 134.8125 29.960938 L 147.371094 29.960938 L 147.457031 27.007812 L 144.875 26.828125 L 164.988281 6.851562 L 161.011719 26.964844 L 158.777344 26.964844 L 158.777344 29.960938 L 175.664062 29.960938 L 175.574219 26.964844 L 173.164062 26.964844 "/>
<g clip-path="url(#clip1)" clip-rule="nonzero">
<path style=" stroke:none;fill-rule:nonzero;fill:rgb(16.339111%,22.753906%,30.918884%);fill-opacity:1;" d="M 1.351562 30.882812 L 14.230469 44.941406 L 161.324219 44.941406 L 174.980469 30.574219 "/>
</g>
<path style=" stroke:none;fill-rule:nonzero;fill:rgb(100%,100%,100%);fill-opacity:1;" d="M 39.609375 33.910156 L 41.238281 35.535156 L 39.609375 37.160156 L 37.988281 35.535156 Z M 41.238281 38.785156 L 42.859375 37.160156 L 46.109375 33.910156 L 44.484375 32.289062 L 42.859375 33.910156 L 41.238281 32.289062 L 39.609375 33.910156 L 37.988281 32.289062 L 36.359375 33.910156 L 34.738281 32.289062 L 33.113281 33.910156 L 34.738281 35.535156 L 36.359375 37.160156 L 37.988281 38.785156 L 36.359375 40.410156 L 34.738281 42.035156 L 36.359375 43.660156 L 37.988281 42.035156 L 39.609375 40.410156 L 41.238281 42.035156 L 42.859375 43.660156 L 44.484375 42.035156 L 42.859375 40.410156 L 41.238281 38.785156 "/>
<path style=" stroke:none;fill-rule:nonzero;fill:rgb(100%,100%,100%);fill-opacity:1;" d="M 42.859375 40.410156 L 44.484375 42.035156 L 46.109375 40.410156 L 44.484375 38.785156 L 42.859375 40.410156 "/>
<path style=" stroke:none;fill-rule:nonzero;fill:rgb(100%,100%,100%);fill-opacity:1;" d="M 47.734375 42.035156 L 49.359375 40.410156 L 47.734375 38.785156 L 44.484375 42.035156 L 46.109375 43.660156 L 47.734375 42.035156 "/>
<path style=" stroke:none;fill-rule:nonzero;fill:rgb(100%,100%,100%);fill-opacity:1;" d="M 36.359375 40.410156 L 34.738281 38.785156 L 33.113281 40.410156 L 34.738281 42.035156 L 36.359375 40.410156 "/>
<path style=" stroke:none;fill-rule:nonzero;fill:rgb(100%,100%,100%);fill-opacity:1;" d="M 47.734375 38.785156 L 49.359375 37.160156 L 47.734375 35.535156 L 46.109375 37.160156 L 47.734375 38.785156 "/>
<path style=" stroke:none;fill-rule:nonzero;fill:rgb(100%,100%,100%);fill-opacity:1;" d="M 63.980469 38.785156 L 60.730469 42.035156 L 62.355469 43.660156 L 65.605469 40.410156 L 63.980469 38.785156 "/>
<path style=" stroke:none;fill-rule:nonzero;fill:rgb(100%,100%,100%);fill-opacity:1;" d="M 57.480469 38.785156 L 62.355469 33.910156 L 60.730469 32.289062 L 59.105469 33.910156 L 57.480469 32.289062 L 55.855469 33.910156 L 57.480469 35.535156 L 55.855469 37.160156 L 54.234375 35.535156 L 55.855469 33.910156 L 54.234375 32.289062 L 52.609375 33.910156 L 50.984375 32.289062 L 49.359375 33.910156 L 54.234375 38.785156 L 50.984375 42.035156 L 52.609375 40.410156 L 50.984375 38.785156 L 47.734375 42.035156 L 49.359375 43.660156 L 50.984375 42.035156 L 52.609375 43.660156 L 54.234375 42.035156 L 55.855469 40.410156 L 59.105469 43.660156 L 60.730469 42.035156 L 57.480469 38.785156 "/>
<path style=" stroke:none;fill-rule:nonzero;fill:rgb(100%,100%,100%);fill-opacity:1;" d="M 62.355469 40.410156 L 60.730469 38.785156 L 59.105469 40.410156 L 60.730469 42.035156 L 62.355469 40.410156 "/>
<path style=" stroke:none;fill-rule:nonzero;fill:rgb(100%,100%,100%);fill-opacity:1;" d="M 63.980469 38.785156 L 65.605469 37.160156 L 63.980469 35.535156 L 62.355469 37.160156 L 63.980469 38.785156 "/>
<path style=" stroke:none;fill-rule:nonzero;fill:rgb(100%,100%,100%);fill-opacity:1;" d="M 89.976562 38.785156 L 93.226562 35.535156 L 94.847656 33.910156 L 93.226562 32.289062 L 91.601562 33.910156 L 89.976562 32.289062 L 88.351562 33.910156 L 89.976562 35.535156 L 88.351562 37.160156 L 86.726562 35.535156 L 88.351562 33.910156 L 86.726562 32.289062 L 85.101562 33.910156 L 83.476562 32.289062 L 81.851562 33.910156 L 86.726562 38.785156 L 83.476562 42.035156 L 85.101562 40.410156 L 83.476562 38.785156 L 80.226562 42.035156 L 81.851562 43.660156 L 83.476562 42.035156 L 85.101562 43.660156 L 88.351562 40.410156 L 91.601562 43.660156 L 93.226562 42.035156 L 89.976562 38.785156 "/>
<path style=" stroke:none;fill-rule:nonzero;fill:rgb(100%,100%,100%);fill-opacity:1;" d="M 93.226562 42.035156 L 94.847656 43.660156 L 96.472656 42.035156 L 94.847656 40.410156 L 93.226562 42.035156 "/>
<path style=" stroke:none;fill-rule:nonzero;fill:rgb(100%,100%,100%);fill-opacity:1;" d="M 91.601562 40.410156 L 93.226562 42.035156 L 94.847656 40.410156 L 93.226562 38.785156 L 91.601562 40.410156 "/>
<path style=" stroke:none;fill-rule:nonzero;fill:rgb(100%,100%,100%);fill-opacity:1;" d="M 80.226562 38.785156 L 76.976562 42.035156 L 78.601562 43.660156 L 81.851562 40.410156 L 80.226562 38.785156 "/>
<path style=" stroke:none;fill-rule:nonzero;fill:rgb(100%,100%,100%);fill-opacity:1;" d="M 98.101562 40.410156 L 96.472656 38.785156 L 94.847656 40.410156 L 96.472656 42.035156 L 98.101562 40.410156 "/>
<path style=" stroke:none;fill-rule:nonzero;fill:rgb(100%,100%,100%);fill-opacity:1;" d="M 96.472656 35.535156 L 94.847656 37.160156 L 96.472656 38.785156 L 98.101562 37.160156 L 96.472656 35.535156 "/>
<path style=" stroke:none;fill-rule:nonzero;fill:rgb(100%,100%,100%);fill-opacity:1;" d="M 73.726562 38.785156 L 78.601562 33.910156 L 76.976562 32.289062 L 75.351562 33.910156 L 73.726562 32.289062 L 72.101562 33.910156 L 73.726562 35.535156 L 72.101562 37.160156 L 70.480469 35.535156 L 72.101562 33.910156 L 70.480469 32.289062 L 68.855469 33.910156 L 67.230469 32.289062 L 65.605469 33.910156 L 70.480469 38.785156 L 67.230469 42.035156 L 68.855469 40.410156 L 67.230469 38.785156 L 63.980469 42.035156 L 65.605469 43.660156 L 67.230469 42.035156 L 68.855469 43.660156 L 70.480469 42.035156 L 72.101562 40.410156 L 75.351562 43.660156 L 76.976562 42.035156 L 73.726562 38.785156 "/>
<path style=" stroke:none;fill-rule:nonzero;fill:rgb(100%,100%,100%);fill-opacity:1;" d="M 78.601562 40.410156 L 76.976562 38.785156 L 75.351562 40.410156 L 76.976562 42.035156 L 78.601562 40.410156 "/>
<path style=" stroke:none;fill-rule:nonzero;fill:rgb(100%,100%,100%);fill-opacity:1;" d="M 80.226562 38.785156 L 81.851562 37.160156 L 80.226562 35.535156 L 78.601562 37.160156 L 80.226562 38.785156 "/>
<path style=" stroke:none;fill-rule:nonzero;fill:rgb(100%,100%,100%);fill-opacity:1;" d="M 120.84375 33.910156 L 122.46875 35.535156 L 120.84375 37.160156 L 119.214844 35.535156 Z M 122.46875 38.785156 L 124.09375 37.160156 L 125.714844 35.535156 L 127.339844 33.910156 L 125.714844 32.289062 L 124.09375 33.910156 L 122.46875 32.289062 L 120.84375 33.910156 L 119.214844 32.289062 L 117.59375 33.910156 L 115.96875 32.289062 L 114.34375 33.910156 L 117.59375 37.160156 L 119.214844 38.785156 L 117.59375 40.410156 L 115.96875 42.035156 L 117.59375 40.410156 L 115.96875 38.785156 L 112.71875 42.035156 L 114.34375 43.660156 L 115.96875 42.035156 L 117.59375 43.660156 L 119.214844 42.035156 L 120.84375 40.410156 L 124.09375 43.660156 L 125.714844 42.035156 L 124.09375 40.410156 L 122.46875 38.785156 "/>
<path style=" stroke:none;fill-rule:nonzero;fill:rgb(100%,100%,100%);fill-opacity:1;" d="M 124.09375 40.410156 L 125.714844 42.035156 L 127.339844 40.410156 L 125.714844 38.785156 L 124.09375 40.410156 "/>
<path style=" stroke:none;fill-rule:nonzero;fill:rgb(100%,100%,100%);fill-opacity:1;" d="M 128.964844 42.035156 L 130.59375 40.410156 L 128.964844 38.785156 L 125.714844 42.035156 L 127.339844 43.660156 L 128.964844 42.035156 "/>
<path style=" stroke:none;fill-rule:nonzero;fill:rgb(100%,100%,100%);fill-opacity:1;" d="M 112.71875 38.785156 L 109.46875 42.035156 L 111.09375 43.660156 L 114.34375 40.410156 L 112.71875 38.785156 "/>
<path style=" stroke:none;fill-rule:nonzero;fill:rgb(100%,100%,100%);fill-opacity:1;" d="M 128.964844 38.785156 L 130.59375 37.160156 L 128.964844 35.535156 L 127.339844 37.160156 L 128.964844 38.785156 "/>
<path style=" stroke:none;fill-rule:nonzero;fill:rgb(100%,100%,100%);fill-opacity:1;" d="M 140.339844 37.160156 L 143.589844 33.910156 L 141.964844 32.289062 L 140.339844 33.910156 L 138.714844 32.289062 L 137.089844 33.910156 L 138.714844 35.535156 L 137.089844 37.160156 L 135.464844 35.535156 L 137.089844 33.910156 L 135.464844 32.289062 L 133.839844 33.910156 L 132.214844 32.289062 L 130.59375 33.910156 L 132.214844 35.535156 L 135.464844 38.785156 L 132.214844 42.035156 L 133.839844 40.410156 L 132.214844 38.785156 L 130.59375 40.410156 L 128.964844 42.035156 L 130.59375 43.660156 L 132.214844 42.035156 L 133.839844 43.660156 L 137.089844 40.410156 L 140.339844 43.660156 L 141.964844 42.035156 L 138.714844 38.785156 L 140.339844 37.160156 "/>
<path style=" stroke:none;fill-rule:nonzero;fill:rgb(100%,100%,100%);fill-opacity:1;" d="M 140.339844 40.410156 L 141.964844 42.035156 L 143.589844 40.410156 L 141.964844 38.785156 L 140.339844 40.410156 "/>
<path style=" stroke:none;fill-rule:nonzero;fill:rgb(100%,100%,100%);fill-opacity:1;" d="M 106.222656 38.785156 L 107.84375 37.160156 L 111.09375 33.910156 L 109.46875 32.289062 L 107.84375 33.910156 L 106.222656 32.289062 L 104.597656 33.910156 L 106.222656 35.535156 L 104.597656 37.160156 L 102.972656 35.535156 L 104.597656 33.910156 L 102.972656 32.289062 L 101.347656 33.910156 L 99.722656 32.289062 L 98.101562 33.910156 L 99.722656 35.535156 L 102.972656 38.785156 L 99.722656 42.035156 L 101.347656 40.410156 L 99.722656 38.785156 L 98.101562 40.410156 L 96.472656 42.035156 L 98.101562 43.660156 L 99.722656 42.035156 L 101.347656 43.660156 L 104.597656 40.410156 L 106.222656 42.035156 L 107.84375 43.660156 L 109.46875 42.035156 L 107.84375 40.410156 L 106.222656 38.785156 "/>
<path style=" stroke:none;fill-rule:nonzero;fill:rgb(100%,100%,100%);fill-opacity:1;" d="M 111.09375 40.410156 L 109.46875 38.785156 L 107.84375 40.410156 L 109.46875 42.035156 L 111.09375 40.410156 "/>
<path style=" stroke:none;fill-rule:nonzero;fill:rgb(100%,100%,100%);fill-opacity:1;" d="M 112.71875 38.785156 L 114.34375 37.160156 L 112.71875 35.535156 L 111.09375 37.160156 L 112.71875 38.785156 "/>
<g clip-path="url(#clip2)" clip-rule="nonzero">
<path style=" stroke:none;fill-rule:nonzero;fill:rgb(90.606689%,16.394043%,21.42334%);fill-opacity:1;" d="M 9.519531 41.421875 L 12.078125 44.941406 L 163.605469 44.941406 L 166.316406 41.722656 "/>
</g>
</g>
</svg>

<svg xmlns="http://www.w3.org/2000/svg" width="176pt" height="59.92" viewBox="0 0 176 44.94"><defs><clipPath id="a"><path d="M1 30h174v14.941H1Zm0 0"/></clipPath><clipPath id="b"><path d="M9 41h158v3.941H9Zm0 0"/></clipPath></defs><path d="M27.102 17.977H19.48s-2.71-.489-1.355-3.426 4.3-9.363 4.3-9.363S22.532 3 25.747 3h7.793ZM47.094.004H22.98c-7.96 0-8.636 3.18-8.636 3.18S9.316 12.699 7.62 16.426c-1.691 3.726 4.914 5.004 4.914 5.004l-4.742 5.535H0v2.996h15.902l.91-2.996h-1.195l3.356-5.992h5.984l-2.414 5.992h-1.707l-1.074 2.996h16.187v-2.996h-1.941zM98.59.004H87.07L70.47 14.684 66.824.004H56.238L43.45 26.964h-4.504v2.997h17.977v-2.996h-2.59l9.277-20.23 4.91 15.394 12.876-11.531-8.301 16.367h-1.82l-.016 2.996h15.62v-2.996H85.84zM119.367 17.977h-8.496c.25 0 10.418-10.079 10.418-10.079Zm10.094 8.988L132.297.004h-9.57L94.992 26.582l-5.117-.156v3.535h13.797l.082-2.953-2.582-.535 4.445-5.5h12.79l-1.102 5.992h-3.465v2.996h18.117l-.082-2.996zM173.164 26.965 176 .004h-9.57l-27.118 26.578-4.5-.156v3.535h12.56l.085-2.953-2.582-.18 20.113-19.976-3.976 20.113h-2.235v2.996h16.887l-.09-2.996z" style="stroke:none;fill-rule:nonzero;fill:#e72937;fill-opacity:1"/><g clip-path="url(#a)"><path d="M1.352 30.883 14.23 44.94h147.094l13.656-14.367" style="stroke:none;fill-rule:nonzero;fill:#2a3a4f;fill-opacity:1"/></g><path d="m39.61 33.91 1.628 1.625-1.629 1.625-1.62-1.625Zm1.628 4.875 1.621-1.625 3.25-3.25-1.625-1.62-1.625 1.62-1.62-1.62-1.63 1.62-1.62-1.62-1.63 1.62-1.62-1.62-1.626 1.62 1.625 1.625 1.621 1.625 1.63 1.625-1.63 1.625-1.62 1.625 1.62 1.625 1.63-1.625 1.62-1.625 1.63 1.625 1.62 1.625 1.625-1.625-1.625-1.625z" style="stroke:none;fill-rule:nonzero;fill:#fff;fill-opacity:1"/><path d="m42.86 40.41 1.624 1.625 1.625-1.625-1.625-1.625zM47.734 42.035l1.625-1.625-1.625-1.625-3.25 3.25 1.625 1.625zM36.36 40.41l-1.622-1.625-1.625 1.625 1.625 1.625zM47.734 38.785l1.625-1.625-1.625-1.625-1.625 1.625zM63.98 38.785l-3.25 3.25 1.625 1.625 3.25-3.25z" style="stroke:none;fill-rule:nonzero;fill:#fff;fill-opacity:1"/><path d="m57.48 38.785 4.875-4.875-1.625-1.62-1.625 1.62-1.625-1.62-1.625 1.62 1.625 1.625-1.625 1.625-1.62-1.625 1.62-1.625-1.62-1.62-1.626 1.62-1.625-1.62-1.625 1.62 4.875 4.875-3.25 3.25 1.625-1.625-1.625-1.625-3.25 3.25 1.625 1.625 1.625-1.625 1.625 1.625 1.625-1.625 1.621-1.625 3.25 3.25 1.625-1.625z" style="stroke:none;fill-rule:nonzero;fill:#fff;fill-opacity:1"/><path d="m62.355 40.41-1.625-1.625-1.625 1.625 1.625 1.625zM63.98 38.785l1.625-1.625-1.625-1.625-1.625 1.625zM89.977 38.785l3.25-3.25 1.62-1.625-1.62-1.62-1.625 1.62-1.625-1.62-1.625 1.62 1.625 1.625-1.625 1.625-1.625-1.625 1.625-1.625-1.625-1.62-1.625 1.62-1.625-1.62-1.625 1.62 4.875 4.875-3.25 3.25 1.625-1.625-1.625-1.625-3.25 3.25 1.625 1.625 1.625-1.625 1.625 1.625 3.25-3.25 3.25 3.25 1.625-1.625zM93.227 42.035l1.62 1.625 1.626-1.625-1.625-1.625z" style="stroke:none;fill-rule:nonzero;fill:#fff;fill-opacity:1"/><path d="m91.602 40.41 1.625 1.625 1.62-1.625-1.62-1.625zM80.227 38.785l-3.25 3.25 1.625 1.625 3.25-3.25zM98.102 40.41l-1.63-1.625-1.624 1.625 1.625 1.625zM96.473 35.535l-1.625 1.625 1.625 1.625 1.629-1.625zM73.727 38.785l4.875-4.875-1.625-1.62-1.625 1.62-1.625-1.62-1.625 1.62 1.625 1.625-1.625 1.625-1.622-1.625 1.622-1.625-1.622-1.62-1.625 1.62-1.625-1.62-1.625 1.62 4.875 4.875-3.25 3.25 1.625-1.625-1.625-1.625-3.25 3.25 1.625 1.625 1.625-1.625 1.625 1.625 1.625-1.625 1.622-1.625 3.25 3.25 1.625-1.625z" style="stroke:none;fill-rule:nonzero;fill:#fff;fill-opacity:1"/><path d="m78.602 40.41-1.625-1.625-1.625 1.625 1.625 1.625zM80.227 38.785l1.625-1.625-1.625-1.625-1.625 1.625zM120.844 33.91l1.625 1.625-1.625 1.625-1.63-1.625Zm1.625 4.875 1.625-1.625 1.62-1.625 1.626-1.625-1.625-1.62-1.621 1.62-1.625-1.62-1.625 1.62-1.63-1.62-1.62 1.62-1.625-1.62-1.625 1.62 3.25 3.25 1.62 1.625-1.62 1.625-1.625 1.625 1.625-1.625-1.625-1.625-3.25 3.25 1.625 1.625 1.625-1.625 1.625 1.625 1.62-1.625 1.63-1.625 3.25 3.25 1.62-1.625-1.62-1.625z" style="stroke:none;fill-rule:nonzero;fill:#fff;fill-opacity:1"/><path d="m124.094 40.41 1.62 1.625 1.626-1.625-1.625-1.625z" style="stroke:none;fill-rule:nonzero;fill:#fff;fill-opacity:1"/><path d="m128.965 42.035 1.629-1.625-1.63-1.625-3.25 3.25 1.626 1.625zM112.719 38.785l-3.25 3.25 1.625 1.625 3.25-3.25zM128.965 38.785l1.629-1.625-1.63-1.625-1.624 1.625z" style="stroke:none;fill-rule:nonzero;fill:#fff;fill-opacity:1"/><path d="m140.34 37.16 3.25-3.25-1.625-1.62-1.625 1.62-1.625-1.62-1.625 1.62 1.625 1.625-1.625 1.625-1.625-1.625 1.625-1.625-1.625-1.62-1.625 1.62-1.625-1.62-1.621 1.62 1.62 1.625 3.25 3.25-3.25 3.25 1.626-1.625-1.625-1.625-1.621 1.625-1.63 1.625 1.63 1.625 1.62-1.625 1.626 1.625 3.25-3.25 3.25 3.25 1.625-1.625-3.25-3.25z" style="stroke:none;fill-rule:nonzero;fill:#fff;fill-opacity:1"/><path d="m140.34 40.41 1.625 1.625 1.625-1.625-1.625-1.625zM106.223 38.785l1.62-1.625 3.25-3.25-1.624-1.62-1.625 1.62-1.621-1.62-1.625 1.62 1.625 1.625-1.625 1.625-1.625-1.625 1.625-1.625-1.625-1.62-1.625 1.62-1.625-1.62-1.621 1.62 1.62 1.625 3.25 3.25-3.25 3.25 1.626-1.625-1.625-1.625-1.621 1.625-1.63 1.625 1.63 1.625 1.62-1.625 1.626 1.625 3.25-3.25 1.625 1.625 1.62 1.625 1.626-1.625-1.625-1.625z" style="stroke:none;fill-rule:nonzero;fill:#fff;fill-opacity:1"/><path d="m111.094 40.41-1.625-1.625-1.625 1.625 1.625 1.625zM112.719 38.785l1.625-1.625-1.625-1.625-1.625 1.625z" style="stroke:none;fill-rule:nonzero;fill:#fff;fill-opacity:1"/><g clip-path="url(#b)"><path d="m9.52 41.422 2.558 3.52h151.527l2.711-3.22" style="stroke:none;fill-rule:nonzero;fill:#e72a37;fill-opacity:1"/></g></svg>
